X: 2395
M: C
L: 1/8
K: F
(ucB) |\
dBAB GAFG | EFDE C2 (cB) |\
dBAB cbge | f2f2f2 :|
|: uc2 |\
gabg ecde | fefc agaf |\
gabg ecde | fefd cABG |\
cfdf ebge | f2f2f2 :|


